X: 7
I: linebreak $
T: Madam Sosilia's Alman
T: for couples
P: AABB x2
C: Joseph Casazza, CC BY-NC 3.0
N: FIXME WRONG
K: G major
M: 2/2
L: 1/4
 :: "G"Bd "Am"c"G"B | "D"A2 A"G"G/A/ | Bd "Am"c3/B/ | "D"A"G"B "D"A"C"G- | "G"G"D"F "G"G2 :: "G"BA G"D"A/B/ | 
"Am"c"G"B "D"AA | "C"e"G"d "C"c"D"d | "Asus4"d^c "D"d2 || "G"BA G"D"A/B/ | "Am"cB "C"A"G"A | "D"e"C"d "G"c"D"d | 
"G"d^c "G"d2 || d3/c/ Bd | c/B/c/d/ cB | AG2F | G2 G2 :| 

